X:1
T:Title
%%score 1 { 2 | 3 }
L:1/8
Q:1/4=88
M:4/4
K:D
V:1 treble nm="Grand Piano, Soprano"
V:2 bass nm="Choir Pad, The Marriage Supper"
V:3 bass 
V:1
 D>[DE] [DF][DA] [DA][DA][DB][DA] | [DA]>[DA] [DB][Dd] [Dd]>[Dd] [Dd]2 | %2
w: By~Frederick~E.~Rimanoczy,~1910 * * * * * * *||
 [FA]>[FA] [Fd]>[Fc] [Fd][FB][FA][DF] | [DE]D[DF][DE] [DF]>[CE] [CE]2 | %4
w: ||
 D>[DE] [DF][DA] [DA][DA][DB][DA] | [DA]>[DA] [DB][Dd] [Dd]>[Dd] [Dd]2 | %6
w: ||
 [DA]>[DA] [Dd][Dd] [Dd][Dd][Dd][Dd] | [Dd][Dd]/[Dd]/ [FA][FA] [CA]>[CA] [A,D]2 | %8
w: ||
 [Dd]>[Dc] [DB]>[DB] [DB][DB][DB][Dd] | [Dd]>[GB] [GB][FA] [FA]>[DF] [FA]2 | %10
w: ||
 [FA]>[FA] [Fd]>[Fc] [Fd][FB][FA][DF] | [DE]D[DF][DE] [DF]>[CE] [CE]2 | %12
w: ||
 D>[DE] [DF][DA] [DA][DA] [DB]>[DA] | [DA][DA]/[DA]/ [DB][Dd] [Dd]>[Dd] [Dd]2 | %14
w: ||
 [DA]2 [Dd][Dd] [Dd][Dd][Dd][Dd] | [Dd][Dd][FA][DF] [CE]>[A,D] [A,D]2- | [A,D]6 z2 |] %17
w: |||
V:2
 F,>G, A,F, F,F,G,F, | F,>F, G,B, B,>^A, =A,2 | D>D A,>A, A,DDA, | G,F,^G,G, G,>A, A,2 | %4
 F,>^G, A,F, F,F,=G,F, | F,>F, G,B, B,>^A, =A,2 | F,>F, F,F, F,F,G,G, | ^G,G,/G,/ DD =G,>G, F,2 | %8
 F,>F, G,>G, G,G,G,B, | B,>[K:treble]D DD D>A, D2 | D>D[K:bass] A,>A, A,DDA, | %11
 G,F,^G,G, G,>A, A,2 | F,>^G, A,F, F,F, =G,>F, | F,F,/F,/ G,B, B,>^A, =A,2 | F,2 F,F, F,F,G,G, | %15
 ^G,G,DA, =G,>F, F,2- | F,6 z2 |] %17
V:3
 D,>D, D,D, D,D,D,D, | D,>D, D,G, G,>G, F,2 | D,>D, D,>D, D,D,D,D, | D,D,B,,B,, B,,>A,, A,,2 | %4
 D,>D, D,D, D,D,D,D, | D,>D, D,G, G,>G, F,2 | D,>D, D,D, =C,C,B,,B,, | %7
 ^A,,A,,/A,,/ =A,,A,, A,,>A,, D,2 | D,>D, z2 z2 z G, | G,>G, D,D, D,>D, D,2 | %10
 D,>D, D,>D, D,D,D,D, | D,D,B,,B,, B,,>A,, A,,2 | D,>D, D,D, D,D, D,>D, | D,D,/D,/ D,G, G,>G, F,2 | %14
 D,2 D,D, =C,C,B,,B,, | ^A,,A,,=A,,A,, A,,>D, D,2- | D,6 z2 |] %17

